packages/icons/svgs/duotone/Source=edit.svg

<svg width="24" height="24" viewBox="0 0 24 24" fill="none" xmlns="http://www.w3.org/2000/svg">
<path opacity="0.5" fill-rule="evenodd" clip-rule="evenodd" d="M1 22C1 21.4477 1.44772 21 2 21H22C22.5523 21 23 21.4477 23 22C23 22.5523 22.5523 23 22 23H2C1.44772 23 1 22.5523 1 22Z" fill="black" style="fill:black;fill-opacity:1;"/>
<path fill-rule="evenodd" clip-rule="evenodd" d="M16.414 3.00022L18.9998 5.58601L8.50697 16.0788L5.27474 16.7253L5.92119 13.493L16.414 3.00022ZM17.8286 1.58638C17.0473 0.803572 15.7808 0.805015 14.9999 1.5859L4.29288 12.2929C4.15328 12.4325 4.05812 12.6103 4.01941 12.8039L3.01941 17.8039C2.95383 18.1318 3.05646 18.4707 3.29288 18.7071C3.5293 18.9435 3.86824 19.0462 4.1961 18.9806L9.1961 17.9806C9.38969 17.9419 9.56749 17.8467 9.70709 17.7071L20.4132 7.00102C20.413 7.00116 20.4133 7.00088 20.4132 7.00102C21.196 6.21975 21.195 4.95278 20.4141 4.1719L17.8286 1.58638C17.8287 1.58652 17.8284 1.58624 17.8286 1.58638Z" fill="black" style="fill:black;fill-opacity:1;"/>
<path fill-rule="evenodd" clip-rule="evenodd" d="M12.2929 4.2929C12.6834 3.90237 13.3166 3.90237 13.7071 4.2929L17.7071 8.2929C18.0976 8.68342 18.0976 9.31659 17.7071 9.70711C17.3166 10.0976 16.6834 10.0976 16.2929 9.70711L12.2929 5.70711C11.9024 5.31659 11.9024 4.68342 12.2929 4.2929Z" fill="black" style="fill:black;fill-opacity:1;"/>
</svg>

<svg xmlns="http://www.w3.org/2000/svg" width="24" height="24" viewBox="0 0 24 24"><path fill-rule="evenodd" d="M1 22a1 1 0 0 1 1-1h20a1 1 0 1 1 0 2H2a1 1 0 0 1-1-1" clip-rule="evenodd" opacity=".5"/><path fill-rule="evenodd" d="M16.414 3 19 5.586 8.507 16.079l-3.232.646.646-3.232zm1.415-1.414a2 2 0 0 0-2.83 0L4.294 12.293a1 1 0 0 0-.274.51l-1 5a1 1 0 0 0 1.177 1.178l5-1a1 1 0 0 0 .511-.274L20.413 7.001a2 2 0 0 0 .001-2.83z" clip-rule="evenodd"/><path fill-rule="evenodd" d="M12.293 4.293a1 1 0 0 1 1.414 0l4 4a1 1 0 0 1-1.414 1.414l-4-4a1 1 0 0 1 0-1.414" clip-rule="evenodd"/></svg>
